lib/core/plugins/img/email/attach.svg

<svg xmlns="http://www.w3.org/2000/svg" width="14" height="16" viewBox="0 0 14 16"><path fill-rule="evenodd" d="M7 9l3 3H8v3H6v-3H4l3-3zm3-6H8V0H6v3H4l3 3 3-3zm4 2c0-.55-.45-1-1-1h-2.5l-1 1h3l-2 2h-7l-2-2h3l-1-1H1c-.55 0-1 .45-1 1l2.5 2.5L0 10c0 .55.45 1 1 1h2.5l1-1h-3l2-2h7l2 2h-3l1 1H13c.55 0 1-.45 1-1l-2.5-2.5L14 5z"/></svg>

<svg width="14px" height="16px" viewBox="0 0 14 16" version="1.1" xmlns="http://www.w3.org/2000/svg" xmlns:xlink="http://www.w3.org/1999/xlink">
    <g id="Octicons" stroke="none" stroke-width="1" fill="none" fill-rule="evenodd">
        <g id="fold" fill="#000000">
            <path d="M7,9 L10,12 L8,12 L8,15 L6,15 L6,12 L4,12 L7,9 L7,9 Z M10,3 L8,3 L8,0 L6,0 L6,3 L4,3 L7,6 L10,3 L10,3 Z M14,5 C14,4.45 13.55,4 13,4 L10.5,4 L9.5,5 L12.5,5 L10.5,7 L3.5,7 L1.5,5 L4.5,5 L3.5,4 L1,4 C0.45,4 0,4.45 0,5 L2.5,7.5 L0,10 C0,10.55 0.45,11 1,11 L3.5,11 L4.5,10 L1.5,10 L3.5,8 L10.5,8 L12.5,10 L9.5,10 L10.5,11 L13,11 C13.55,11 14,10.55 14,10 L11.5,7.5 L14,5 L14,5 Z" id="Shape"></path>
        </g>
    </g>
</svg>
